X: 12
T:Marcha del Corpus de Pontevedra
M:3/4
L:1/8
Q:170
R:Marcha
A:Pontevedra
K:C
c2 GECG| c2 GECE | GF FDB,D | AG GE C2| c2 GECG| c2 GECE | GF FDB,D | C2
 C4 :||: F2 FEFG | E2 ECEG | D2 DB,DA | GFED C2|  F2 FEFG | E2 ECEG | D2
 DB,DG | C2 "D.C."C4 :||

